Sources/FrostedUI/Resources/Icons.xcassets/documentLines16.imageset/document-lines-16.svg

<svg width="16" height="16" viewBox="0 0 16 16" fill="none" xmlns="http://www.w3.org/2000/svg" data-fui-icon="true">
  <path
    d="M7.94824 1.08301C8.50054 1.08315 9.03033 1.30284 9.4209 1.69336L12.9736 5.24512C13.3643 5.63574 13.5839 6.16636 13.584 6.71875V12.833C13.584 13.9835 12.6504 14.9158 11.5 14.916H4.5C3.34956 14.9158 2.41699 13.9835 2.41699 12.833V3.16602C2.41737 2.01585 3.34979 1.08318 4.5 1.08301H7.94824ZM4.5 2.58301C4.17821 2.58318 3.91737 2.84428 3.91699 3.16602V12.833C3.91699 13.1551 4.17798 13.4158 4.5 13.416H11.5C11.822 13.4158 12.084 13.1551 12.084 12.833V6.91602H9.83398C8.68336 6.91602 7.75 5.98359 7.75 4.83301V2.58301H4.5ZM10.3125 10.5C10.7264 10.5002 11.0623 10.8361 11.0625 11.25C11.0623 11.6639 10.7264 11.9998 10.3125 12H5.6875C5.27354 11.9998 4.93768 11.664 4.9375 11.25C4.9377 10.8361 5.27356 10.5002 5.6875 10.5H10.3125ZM8 7.75977C8.41382 7.75996 8.74963 8.09599 8.75 8.50977C8.75 8.92386 8.41405 9.25957 8 9.25977H5.6875C5.27344 9.25959 4.9375 8.92387 4.9375 8.50977C4.93787 8.09598 5.27367 7.75994 5.6875 7.75977H8ZM9.25 4.83301C9.25 5.15518 9.51181 5.41602 9.83398 5.41602H11.0234L9.25 3.64258V4.83301Z"
    fill="currentColor"
  />
</svg>

<svg xmlns="http://www.w3.org/2000/svg" width="16" height="16" fill="none" data-fui-icon="true" viewBox="0 0 16 16"><path fill="currentColor" d="M7.948 1.083c.553 0 1.082.22 1.473.61l3.553 3.552c.39.39.61.921.61 1.474v6.114c0 1.15-.934 2.083-2.084 2.083h-7a2.083 2.083 0 0 1-2.083-2.083V3.166c0-1.15.933-2.083 2.083-2.083zM4.5 2.583a.584.584 0 0 0-.583.583v9.667c0 .322.261.583.583.583h7c.322 0 .584-.26.584-.583V6.916h-2.25A2.084 2.084 0 0 1 7.75 4.833v-2.25zm5.813 7.917a.75.75 0 0 1 0 1.5H5.687a.75.75 0 0 1 0-1.5zM8 7.76a.75.75 0 0 1 0 1.5H5.688a.75.75 0 0 1 0-1.5zm1.25-2.927c0 .322.262.583.584.583h1.19L9.25 3.643z"/></svg>
